images/instagram-icon-colored.svg

<svg width="24" height="24" viewBox="0 0 24 24" fill="none" xmlns="http://www.w3.org/2000/svg">
<path d="M16.7536 0H7.1087C3.18895 0 0 3.20735 0 7.14973V16.8503C0 20.7926 3.18895 24 7.1087 24H16.7536C20.6733 24 23.8623 20.7926 23.8623 16.8503V7.14973C23.8622 3.20735 20.6733 0 16.7536 0ZM21.4617 16.8503C21.4617 19.4655 19.3538 21.5856 16.7536 21.5856H7.1087C4.50848 21.5856 2.40054 19.4655 2.40054 16.8503V7.14973C2.40054 4.53446 4.50848 2.4144 7.1087 2.4144H16.7536C19.3538 2.4144 21.4617 4.53446 21.4617 7.14973V16.8503Z" fill="url(#paint0_linear)"/>
<path d="M11.9312 5.79293C8.52811 5.79293 5.75952 8.5775 5.75952 12.0001C5.75952 15.4228 8.52811 18.2074 11.9312 18.2074C15.3342 18.2074 18.1028 15.4228 18.1028 12.0001C18.1028 8.57746 15.3342 5.79293 11.9312 5.79293ZM11.9312 15.793C9.84842 15.793 8.16007 14.0949 8.16007 12.0002C8.16007 9.90543 9.84847 8.20733 11.9312 8.20733C14.0139 8.20733 15.7022 9.90543 15.7022 12.0002C15.7022 14.0949 14.0138 15.793 11.9312 15.793Z" fill="url(#paint1_linear)"/>
<path d="M18.1146 7.32661C18.9313 7.32661 19.5934 6.66068 19.5934 5.83922C19.5934 5.01776 18.9313 4.35184 18.1146 4.35184C17.2978 4.35184 16.6357 5.01776 16.6357 5.83922C16.6357 6.66068 17.2978 7.32661 18.1146 7.32661Z" fill="url(#paint2_linear)"/>
<defs>
<linearGradient id="paint0_linear" x1="11.9311" y1="23.9301" x2="11.9311" y2="0.186412" gradientUnits="userSpaceOnUse">
<stop stop-color="#E09B3D"/>
<stop offset="0.3" stop-color="#C74C4D"/>
<stop offset="0.6" stop-color="#C21975"/>
<stop offset="1" stop-color="#7024C4"/>
</linearGradient>
<linearGradient id="paint1_linear" x1="11.9312" y1="23.9303" x2="11.9312" y2="0.186598" gradientUnits="userSpaceOnUse">
<stop stop-color="#E09B3D"/>
<stop offset="0.3" stop-color="#C74C4D"/>
<stop offset="0.6" stop-color="#C21975"/>
<stop offset="1" stop-color="#7024C4"/>
</linearGradient>
<linearGradient id="paint2_linear" x1="18.1146" y1="23.93" x2="18.1146" y2="0.186287" gradientUnits="userSpaceOnUse">
<stop stop-color="#E09B3D"/>
<stop offset="0.3" stop-color="#C74C4D"/>
<stop offset="0.6" stop-color="#C21975"/>
<stop offset="1" stop-color="#7024C4"/>
</linearGradient>
</defs>
</svg>

<svg width="24" height="24" fill="none" xmlns="http://www.w3.org/2000/svg"><path d="M16.754 0H7.109C3.189 0 0 3.207 0 7.15v9.7C0 20.793 3.189 24 7.109 24h9.645c3.92 0 7.108-3.207 7.108-7.15v-9.7c0-3.943-3.189-7.15-7.108-7.15zm4.708 16.85c0 2.615-2.108 4.736-4.708 4.736H7.109c-2.6 0-4.708-2.12-4.708-4.736v-9.7c0-2.616 2.107-4.736 4.708-4.736h9.645c2.6 0 4.708 2.12 4.708 4.736v9.7z" fill="url(#paint0_linear)"/><path d="M11.931 5.793C8.528 5.793 5.76 8.578 5.76 12c0 3.423 2.768 6.207 6.171 6.207 3.403 0 6.172-2.784 6.172-6.207s-2.769-6.207-6.172-6.207zm0 10c-2.083 0-3.77-1.698-3.77-3.793s1.687-3.793 3.77-3.793S15.702 9.905 15.702 12s-1.688 3.793-3.77 3.793z" fill="url(#paint1_linear)"/><path d="M18.115 7.327c.816 0 1.478-.666 1.478-1.488 0-.821-.662-1.487-1.478-1.487-.817 0-1.48.666-1.48 1.487 0 .822.663 1.488 1.48 1.488z" fill="url(#paint2_linear)"/><defs><linearGradient id="paint0_linear" x1="11.931" y1="23.93" x2="11.931" y2=".186" gradientUnits="userSpaceOnUse"><stop stop-color="#E09B3D"/><stop offset=".3" stop-color="#C74C4D"/><stop offset=".6" stop-color="#C21975"/><stop offset="1" stop-color="#7024C4"/></linearGradient><linearGradient id="paint1_linear" x1="11.931" y1="23.93" x2="11.931" y2=".187" gradientUnits="userSpaceOnUse"><stop stop-color="#E09B3D"/><stop offset=".3" stop-color="#C74C4D"/><stop offset=".6" stop-color="#C21975"/><stop offset="1" stop-color="#7024C4"/></linearGradient><linearGradient id="paint2_linear" x1="18.115" y1="23.93" x2="18.115" y2=".186" gradientUnits="userSpaceOnUse"><stop stop-color="#E09B3D"/><stop offset=".3" stop-color="#C74C4D"/><stop offset=".6" stop-color="#C21975"/><stop offset="1" stop-color="#7024C4"/></linearGradient></defs></svg>
